X:1
T:Title
%%score { ( 1 3 5 ) | ( 2 4 ) }
L:1/8
Q:1/4=224
M:4/2
K:F
V:1 treble nm="Grand Piano"
V:3 treble 
V:5 treble 
V:2 bass 
V:4 bass 
V:1
 F4 [EG]4 A4 c4 | d4 c4 A4 [EG]4 | F4 G4 A4 B4 | c4 d4 z4 E4 | A4 B4 c4 d4 | e4 [Af]4 [Gc]4 A4 | %6
w: Arthur~Page * * *||||||
 G4 A4 =B4 c4 | [FAd]4 E2 F2 [CEc]8 | z4 z2 d2 [Fc]4 F4 | B8 z8 | A4 [G=B]4 [Gc]4 [Ge]4 | %11
w: |||||
 [Ad]4 [_A=B]4 =A8 | B8 z8 | A4 c4 d4 c4 | F4 z2 D2 A4 B4 | G8 z8 |] %16
w: |||||
V:2
 [F,A,]4 [C,C]4[K:treble] [F,CF]4 [A,CF]4 | [B,F]4 [A,CF]4 [CE]4[K:bass] [C,B,]4 | %2
 [D,A,D]4 [E,G,C]4 [F,C]4 [G,CE]4 | [A,CF]4 [B,F]4 [=B,DF]4 C4 | [F,CF]4 [G,CE]4 [A,CF]4 [A,CF]4 | %5
 [G,B,G]4[K:bass] [F,C]4 [E,C]4 [F,CF]4 | [G,CE]4 [G,CE]4[K:treble] [G,DF]4 [G,EG]4 | z4 G,4 z8 | %8
 [C,B,]4 z2 E2 [C,A,]4 [C,A,]4 | [C,G,]4 [C,C]4 [F,CF]4 [F,CF]4 | [F,CF]4 [F,D]4 [E,C]4 [C,C]4 | %11
 [F,A,]4 [E,=B,]4[K:treble] [A,C]8 | [G,DF]4 [G,D]4 [B,D]4 [B,CE]4 | %13
 [A,CF]4 [A,CF]4 [B,F]4 [A,CF]4 | D4 [CE]2 B,2 [A,CF]4 [G,DF]4 | [C,B,]4 [C,B,]4 [F,A,]8 |] %16
V:3
 x16 | x16 | x16 | z8 G8 | x16 | x16 | x16 | z4 G4 z8 | [Ed]8 z8 | F4 z2 B2 B4 A4 | x16 | x16 | %12
 z4 z2 B2 F4 G4 | x16 | z4 G4 z8 | F4 z2 F2 F8 |] %16
V:4
 x8[K:treble] x8 | x12[K:bass] x4 | x16 | x16 | x16 | x4[K:bass] x12 | x8[K:treble] x8 | %7
 G,,4 z2 D2 C,8 | z4 C,4 z8 | x16 | x16 | x8[K:treble] x8 | x16 | x16 | x16 | x16 |] %16
V:5
 x16 | x16 | x16 | x16 | x16 | x16 | x16 | x16 | z4 B,4 z8 | z4 E4 z8 | x16 | x16 | z4 F4 z8 | %13
 x16 | x16 | z4 E4 z8 |] %16

